svgs/sharp-solid/camera-retro.svg

<svg xmlns="http://www.w3.org/2000/svg" viewBox="0 0 512 512"><!--! Font Awesome Pro 6.6.0 by @fontawesome - https://fontawesome.com License - https://fontawesome.com/license (Commercial License) Copyright 2024 Fonticons, Inc. --><path d="M220.6 121.2L271.1 96 448 96l0 96-114.8 0c-21.9-15.1-48.5-24-77.2-24s-55.2 8.9-77.2 24L64 192l0-64 128 0c9.9 0 19.7-2.3 28.6-6.8zM256 32L192 64l-32 0 0-32L64 32l0 32L0 64l0 64L0 416l0 64 64 0 384 0 64 0 0-64 0-320 0-64-64 0L256 32zM168 304a88 88 0 1 1 176 0 88 88 0 1 1 -176 0z"/></svg>

<svg xmlns="http://www.w3.org/2000/svg" viewBox="0 0 512 512"><!--! Font Awesome Pro 6.4.2 by @fontawesome - https://fontawesome.com License - https://fontawesome.com/license (Commercial License) Copyright 2023 Fonticons, Inc. --><path d="M220.6 121.2L271.1 96H448v96H333.2c-21.9-15.1-48.5-24-77.2-24s-55.2 8.9-77.2 24H64V128H192c9.9 0 19.7-2.3 28.6-6.8zM256 32L192 64H160V32H64V64H0v64V416v64H64 448h64V416 96 32H448 256zM168 304a88 88 0 1 1 176 0 88 88 0 1 1 -176 0z"/></svg>
